src/main/resources/icons/DatabaseIcons/icons/udf_script_dark.svg

<svg xmlns="http://www.w3.org/2000/svg" width="16" height="16" viewBox="0 0 16 16">
  <g fill="none" fill-rule="evenodd">
    <polygon fill="#9AA7B0" fill-opacity=".8" points="7 1 3 5 7 5"/>
    <path fill="#9AA7B0" fill-opacity=".8" d="M13,6.31910136 C12.6641152,6.4659905 12.3619342,6.66262643 12.0999,6.907 C11.5899,7.384 11.2409,7.987 11.0419,8.727 L9.9859,8.727 L9.0419,12 L10.1119,12 L9.25588686,14.9702052 L3,14.9702052 L3,6 L8,6 L8,1 L13,1 L13,6.31910136 Z M13,14.711165 L13,14.9702052 L12.9252928,14.9702052 L13,14.711165 Z"/>
    <path fill="#9AA7B0" d="M14.6738,8.2617 C15.0018,8.2617 15.3298,8.3347 15.6448,8.4567 L15.9998,7.2207 C15.6578,7.0857 15.1858,6.9997 14.6348,6.9997 C13.8728,6.9997 13.2428,7.2087 12.7828,7.6367 C12.4288,7.9687 12.1528,8.4077 11.9828,9.0817 L11.8008,9.7267 L10.9998,9.7267 L10.7378,9.7267 L10.3708,10.9997 L10.9998,10.9997 L11.3968,10.9997 L11.4398,10.9997 L11.3158,11.4377 L9.9998,15.9997 L11.5878,15.9997 L13.0288,10.9997 L15.0368,10.9997 L15.4038,9.7267 L13.3778,9.7267 L13.5308,9.1677 C13.7158,8.5427 14.0958,8.2617 14.6738,8.2617"/>
  </g>
</svg>

<svg xmlns="http://www.w3.org/2000/svg" width="16" height="16" viewBox="0 0 16 16"><rect id="frame" width="16" height="16" fill="none"/><g fill="#9AA7B0" fill-rule="evenodd"><path fill-opacity=".8" d="M7 1L3 5h4z"/><path fill-opacity=".8" d="M13 6.32a3.18 3.18 0 0 0-.9.587c-.51.477-.86 1.08-1.058 1.82H9.986L9.042 12h1.07l-.856 2.97H3V6h5V1h5v5.32zm0 8.391v.26h-.075l.075-.26z"/><path d="M14.674 8.262c.328 0 .656.073.97.195L16 7.22C15.658 7.086 15.186 7 14.635 7c-.762 0-1.392.209-1.852.637-.354.332-.63.77-.8 1.445l-.182.645H10.738L10.37 11h1.069l-.124.438L10 16h1.588l1.44-5h2.009l.367-1.273h-2.026l.153-.56c.185-.624.565-.905 1.143-.905"/></g></svg>
